flags/gb-nir.svg

<svg width="512" height="512" viewBox="0 0 512 512" fill="none" xmlns="http://www.w3.org/2000/svg">
<rect width="512" height="512" fill="var(--flag-palette-white, #eeeeee)"/>
<path d="M512 288V224H288V0H224V224H0V288H224V512H288V288H512Z" fill="var(--flag-palette-bright-red, #d80027)"/>
<path d="M256 104L212 180H125L168 256L125 332H212L256 408L300 332H387L344 256L387 180H300L256 104Z" fill="var(--flag-palette-dark-grey, #818085)"/>
<path d="M256 131L220 193H147L184 256L147 319H220L256 382L292 319H365L328 256L365 193H292L256 131Z" fill="var(--flag-palette-white, #eeeeee)"/>
<path d="M259 195C254 195 254 200 254 200V239H251V206C251 206 251 200 246 200C240 200 240 206 240 206V241L237 242V217C237 217 237 211 232 211C226 211 226 217 226 217V260C226 270 231 280 238 286V307H274V290C283 285 290 276 292 265C292 259 294 254 296 249L300 235C300 235 301 230 296 228C291 226 289 231 289 231L281 250H278V203C278 203 278 198 273 198C267 198 267 203 267 203V239H265V200C265 200 265 195 259 195Z" fill="var(--flag-palette-bright-red, #d80027)"/>
<path d="M245 38V49H234V71H245V92C239 86 231 83 223 83C216.362 82.9291 209.857 84.8618 204.334 88.5458C198.812 92.2297 194.529 97.4936 192.045 103.65C189.561 109.806 188.991 116.568 190.41 123.053C191.83 129.538 195.172 135.444 200 140V160H312V140C318 133 322 125 322 116C321.887 109.68 319.961 103.526 316.451 98.2694C312.942 93.0125 307.997 88.8741 302.203 86.3462C296.41 83.8183 290.013 83.0073 283.772 84.0095C277.532 85.0118 271.71 87.7852 267 92V71H278V49H267V38H245Z" fill="var(--flag-palette-dark-yellow, #ffc635)"/>
</svg>

<svg xmlns="http://www.w3.org/2000/svg" width="512" height="512" fill="none"><path fill="var(--flag-palette-white, #eeeeee)" d="M0 0h512v512H0z"/><path fill="var(--flag-palette-bright-red, #d80027)" d="M512 288v-64H288V0h-64v224H0v64h224v224h64V288z"/><path fill="var(--flag-palette-dark-grey, #818085)" d="m256 104-44 76h-87l43 76-43 76h87l44 76 44-76h87l-43-76 43-76h-87z"/><path fill="var(--flag-palette-white, #eeeeee)" d="m256 131-36 62h-73l37 63-37 63h73l36 63 36-63h73l-37-63 37-63h-73z"/><path fill="var(--flag-palette-bright-red, #d80027)" d="M259 195c-5 0-5 5-5 5v39h-3v-33s0-6-5-6c-6 0-6 6-6 6v35l-3 1v-25s0-6-5-6c-6 0-6 6-6 6v43c0 10 5 20 12 26v21h36v-17c9-5 16-14 18-25 0-6 2-11 4-16l4-14s1-5-4-7-7 3-7 3l-8 19h-3v-47s0-5-5-5c-6 0-6 5-6 5v36h-2v-39s0-5-6-5"/><path fill="var(--flag-palette-dark-yellow, #ffc635)" d="M245 38v11h-11v22h11v21c-6-6-14-9-22-9a33 33 0 0 0-23 57v20h112v-20c6-7 10-15 10-24a33 33 0 0 0-55-24V71h11V49h-11V38z"/></svg>
